X:1
T:St. Edith, 76.76 D
T:Justin H. Knecht, 1799,  & Edward Husband, 1871
T:St. Edith, 76.76 D
T:Public Domain
C:Justin H. Knecht, 1799,  & Edward Husband, 1871
Z:Public Domain
%%score ( 1 2 ) ( 3 4 )
L:1/8
M:4/4
K:Eb
V:1 treble 
V:2 treble 
V:3 bass 
V:4 bass 
V:1
 [B,E]2 | [B,E]2 (DE) [DF]2 [DF]2 | [DF]2 E4 [B,G]2 | [EG]2 (FG) [EA]2 [CF]2 | [B,D]6 [B,E]2 | %5
 [B,E]2 (DE) [EG]2 [EB]2 | [EB]4 [EA]2 [EG]2 | [CF]2 (GA) [DG]2 z F | E6 [EB]2 | %9
 [Ge]3 [Gd] [Gc]2 G2 | [GB]4 [FA]2 [EG]2 | [EF]2 (EF) [Ge]2 ([Fd][Ec]) | [DB]6 [EG]2 | %13
 [EG]2 (FG) E2 (GB) | [EB]4 [EA]2 [EG]2 | [CF]2 [CE]2 [B,D]2 (EF) | [B,E]6 |] %17
V:2
 x2 | x2 B,2 x4 | x2 E4 x2 | x2 E2 x4 | x8 | x2 B,2 x4 | x8 | x2 C2 x D2 x | E6 x2 | x6 G2 | x8 | %11
 x2 e2 x4 | x8 | x2 E2 E2 E2 | x8 | x6 B,2 | x6 |] %17
V:3
 [E,G,]2 | [E,G,]2 (F,G,) [E,A,]2 [E,A,]2 | [E,A,]2 [E,G,]4 [E,E]2 | %3
 [E,D]2 [E,_D]2 [A,,C]2 [A,,A,]2 | [B,,F,]6 [E,G,]2 | [E,G,]2 (F,G,) [E,B,]2 [E,_D]2 | %6
 [G,_D]4 [A,C]2 [E,B,]2 | [A,,A,]2 (G,F,) [B,,B,]2 z A, | [E,G,]6 [E,G,]2 | %9
 [C,G,]3 [D,=B,] [E,C]2 [E,C]2 | [F,C]4 [F,C]2 [F,B,]2 | [F,=A,]2 [G,B,]2 [F,A,]2 [F,A,]2 | %12
 [B,,B,]6 [E,B,]2 | [E,B,]2 (A,B,) [E,G,]2 (B,_D) | [A,_D]4 [A,C]2 [E,B,]2 | %15
 [A,,A,]2 [A,,G,]2 [B,,F,]2 (G,A,) | [E,G,]6 |] %17
V:4
 x2 | x2 E,2 x4 | x8 | x8 | x8 | x2 E,2 x4 | x8 | x2 A,,2 x B,,2 x | x8 | x8 | x8 | x8 | x8 | %13
 x2 E,2 x E,2 x | x8 | x6 B,,2 | x6 |] %17

